X:1
T:Title
%%score { ( 1 3 ) | ( 2 4 ) }
L:1/8
Q:1/4=87
M:6/8
K:Bb
V:1 treble nm="Grand Piano"
V:3 treble 
V:2 bass 
V:4 bass 
V:1
 [DF][DG][DFA] [DFc]2 [DFB] | .[B,B]3 E3 | [F,DF][G,DG][A,DFA] [DFc]2 [DFB] | .[B,B]3 E3 | %4
w: Maltbie~Babcock * * * *||||
 [F,DF][G,DG][DA] [CGc]2 [B,DGB] | .[B,=EB]2 [G,CG] [DFd] [Fc]2 | %6
w: ||
 [CD^Fc][B,DFB][A,DFA] D-[DB][DGd] | [=EA]2 [EG] [A,CF]3 | FGF F B2 | [EF][EG][EF] [DF] [Dd]2 | %10
w: ||||
 [^Fc]BG =FGB | c2 F [DF] [Dd]2 | GAG GcG | [DGd]2 [DG] [EGe]3 | [EG][EA][EB] FBe | d2 c [DB]3 |] %16
w: ||||||
V:2
 [B,,F,][B,,G,][B,,A,] [D,F,C]2 [D,F,B,] | z A,B,, z F,2 | B,,B,,B,, [D,F,C]2 [D,F,B,] | %3
 z A,B,, z F,2 | B,,B,,[A,,A,] [G,,G,]2 [G,,G,] | z AB,, z C2 | D,D,C, z B,[B,,G,B,] | %7
 [C,A,C]2 [C,G,B,] [F,,F,]3 | [E,A,C][E,A,C][E,A,C] [D,F,B,] [D,F,B,]2 | %9
 [C,A,][C,A,][C,A,] [B,,B,] [B,,B,]2 | A,[B,G][E,B,E] [F,B,D]2 [F,B,D] | %11
 [F,A,E]2 [F,A,E] [B,,F,B,] [B,,F,B,]2 | [F,=B,D][F,B,D][F,B,D] [E,G,C][E,G,C][E,G,C] | %13
 [D,G,=B,]2 [D,G,B,] [C,G,C]3 | [C,B,][C,A,][C,G,] [F,D][F,B,D][G,B,E] | %15
 [F,A,F]2 [F,A,E] [B,,F,]3 |] %16
V:3
 x6 | [EF]-[EFA][G,EG] [G,G] F2 | x6 | [EF]-[EFA][G,EG] [G,G] F2 | x6 | x6 | z3 .[G,G]3 | x6 | x6 | %9
 x6 | x6 | x6 | x6 | x6 | x6 | x6 |] %16
V:4
 x6 | .[C,F,]3 A,,3 | x6 | .[C,F,]3 A,,3 | x6 | .C,3 [A,,C,]3 | z3 .B,,3 | x6 | x6 | x6 | .E,3 z3 | %11
 x6 | x6 | x6 | x6 | x6 |] %16

